X:25
T:Flowers of Edinborough,The. JGi.025
M:C|
L:1/8
Q:1/4=140
S:Joshua Gibbons MS,1823,Tealby,Lincs.
R:Reel
O:Tealby,Lincolnshire
Z:VMP/R.Greig, 2009
K:G
D2D2G3A|BGBd cBAG|FGEF DEFG|AF dFE3F|
DEFD G3A|BGBd g2fe|dcBA GFGA|B2G2G2:|
|:d2|gfga gbag|fefg fagf|edef gfed|B2e2e2ge|
dBGBd2cB|(ed)ef g2fe|dcBA GFGA|B2G2G2:|

